X:561
T:Lady MacKenzie of Coull 
C:Joe Buchanan's Scottish Tome - Page 146.1
I:146 1
Z:Carl Allison
R:Reel
L:1/8
M:C
K:D
F/G/ |: "D"A>B Ad | "G"BG Ge/d/ | "A"cA "A7"AB/c/ | "D"d/e/f/g/ aF/G/ |
"D"A>B Ad | "G"BG Gd | "A"c/d/e/c/ "A7"Ac | "D"{c}d2 d>d :|
g | "D"fa aa | "G"bg "A7"e>g | "D"fa "Dm"df | "Em"e/d/c/B/ "A7"Ag |
"D"fa a>a | "G"bg e>g | "D"fa "A7"c/d/e/c/ | "D"d2 dg |
"D"fa aa | "Em"bg "A7"e>g | "Bm"fa "Bm"df | "E7"e/d/c/B/ "A7"AB/c/ |
"D"d2 AF | "G"GB "Em"Eg | "D"fe/d/ "A7"ed/c/ | "D"{c}d2 d<d |]
%
W:Errata: Added repeat symbol after first bar.

